X:1
T:Reel du Grandpere
L:1/8
M:4/4
S:French Canadian
K:D
|:AG | "D"FA2A- ABAG | FAde f3f |"G"g2eg "D"fedf | "Em"edcB "A7"ABAG |
"D"FA2A- ABAG | FAde f3f | "G"f2eg "D"fedf | "A7"egec "D"d2 :|
K:G
|:(3DEF | "G"G2FG (3EGE DF | GABc d3d | "C"ef (3gfe  "G"dBGB | "Am"ABAG "D7"FDEF |
"G"G2FG (3EGE DF | GABc d3d | "C"ef (3gfe  "G"dBGB | "D7"AcAF "G"G2 :|
